src/assets/filled/Buliding.svg

<?xml version="1.0" encoding="UTF-8"?>
<svg width="24" height="24" viewBox="0 0 24 24" xmlns="http://www.w3.org/2000/svg">
 <path d="m22 21.25h-20c-0.41 0-0.75 0.34-0.75 0.75s0.34 0.75 0.75 0.75h20c0.41 0 0.75-0.34 0.75-0.75s-0.34-0.75-0.75-0.75z"/>
 <path d="m17 2h-10c-3 0-4 1.79-4 4v16h18v-16c0-2.21-1-4-4-4zm-7 15.25h-3c-0.41 0-0.75-0.34-0.75-0.75s0.34-0.75 0.75-0.75h3c0.41 0 0.75 0.34 0.75 0.75s-0.34 0.75-0.75 0.75zm0-4.5h-3c-0.41 0-0.75-0.34-0.75-0.75s0.34-0.75 0.75-0.75h3c0.41 0 0.75 0.34 0.75 0.75s-0.34 0.75-0.75 0.75zm0-4.5h-3c-0.41 0-0.75-0.34-0.75-0.75s0.34-0.75 0.75-0.75h3c0.41 0 0.75 0.34 0.75 0.75s-0.34 0.75-0.75 0.75zm7 9h-3c-0.41 0-0.75-0.34-0.75-0.75s0.34-0.75 0.75-0.75h3c0.41 0 0.75 0.34 0.75 0.75s-0.34 0.75-0.75 0.75zm0-4.5h-3c-0.41 0-0.75-0.34-0.75-0.75s0.34-0.75 0.75-0.75h3c0.41 0 0.75 0.34 0.75 0.75s-0.34 0.75-0.75 0.75zm0-4.5h-3c-0.41 0-0.75-0.34-0.75-0.75s0.34-0.75 0.75-0.75h3c0.41 0 0.75 0.34 0.75 0.75s-0.34 0.75-0.75 0.75z"/>
</svg>

<svg width="24" height="24" viewBox="0 0 24 24"  xmlns="http://www.w3.org/2000/svg">
<path d="M22 21.25H2C1.59 21.25 1.25 21.59 1.25 22C1.25 22.41 1.59 22.75 2 22.75H22C22.41 22.75 22.75 22.41 22.75 22C22.75 21.59 22.41 21.25 22 21.25Z" />
<path d="M17 2H7C4 2 3 3.79 3 6V22H21V6C21 3.79 20 2 17 2ZM10 17.25H7C6.59 17.25 6.25 16.91 6.25 16.5C6.25 16.09 6.59 15.75 7 15.75H10C10.41 15.75 10.75 16.09 10.75 16.5C10.75 16.91 10.41 17.25 10 17.25ZM10 12.75H7C6.59 12.75 6.25 12.41 6.25 12C6.25 11.59 6.59 11.25 7 11.25H10C10.41 11.25 10.75 11.59 10.75 12C10.75 12.41 10.41 12.75 10 12.75ZM10 8.25H7C6.59 8.25 6.25 7.91 6.25 7.5C6.25 7.09 6.59 6.75 7 6.75H10C10.41 6.75 10.75 7.09 10.75 7.5C10.75 7.91 10.41 8.25 10 8.25ZM17 17.25H14C13.59 17.25 13.25 16.91 13.25 16.5C13.25 16.09 13.59 15.75 14 15.75H17C17.41 15.75 17.75 16.09 17.75 16.5C17.75 16.91 17.41 17.25 17 17.25ZM17 12.75H14C13.59 12.75 13.25 12.41 13.25 12C13.25 11.59 13.59 11.25 14 11.25H17C17.41 11.25 17.75 11.59 17.75 12C17.75 12.41 17.41 12.75 17 12.75ZM17 8.25H14C13.59 8.25 13.25 7.91 13.25 7.5C13.25 7.09 13.59 6.75 14 6.75H17C17.41 6.75 17.75 7.09 17.75 7.5C17.75 7.91 17.41 8.25 17 8.25Z" />
</svg>
